X: 1292
T: The Drogheda Lasses
R:Reel
N:Collected by Kennedy
B:O'Neill's 1292
Z:Transcribed by Trish O'Neil
M:C|
L:1/8
K:D
dD (3DDD (AB)AF|Dgfe dcBc|dD (3DDD (AB)AF|BEEF GABc|
dD (3DDD (AB)AF|Dgfe dcBc|dBcA BGAF|BEEF GABc||
d2(fd)fafd|Adfa gece|d2(fd)fafd|BEEFGABc|
d2(fd) fafd|Adfa gece|f2(ec) dABG|FABc dcBc|]


